X: 233
T: Miss Hay of Leys Strathspey
C: William Shepherd (17??-1812)
R: strathspey
B: William Shepherd "2nd Collection" 1800 p.23 #3
F: http://imslp.org/wiki/File:PMLP73094-Shepherd_Collections_HMT.pdf
Z: 2012 John Chambers <jc:trillian.mit.edu>
M: C
L: 1/16
K: D
F2 |\
D3A  TF3A  E=c3 =C3E  | D3A TF3A D3d Fd3 |\
e3=c A2=F2 Ec3  =C3E  | D3g fgag fd3 -d3TF |
D3A  TF3A  E=c3 =C3E  | D3A TF3A D3d Fd3 |\
e3=c A2=F2 Ec3  =C3E  | D3g agfe f2d2-d2 ||
g2 |\
f3d  a3d   g3=c  efge | f3d a3d  b3d a3d |\
f3d  a3d   g3=c  efge | a3f g3e  f2d2 -d2ag |
f3d  a3d   g3=c  efge | a3f d3TA (Bcd2) A3F |\
G3B  F3d   EFGE =C2E2 | D3g agfe f2d2-d2 |]
